; generated by PrusaSlicer 2.5.0+MacOS-arm64 on 2022-12-11 at 23:56:16 UTC


;
;
; 

; external perimeters extrusion width = 0.45mm
; perimeters extrusion width = 0.45mm
; infill extrusion width = 0.45mm
; solid infill extrusion width = 0.45mm
; top infill extrusion width = 0.40mm
; support material extrusion width = 0.35mm
; first layer extrusion width = 0.42mm

M73 P0 R48
M73 Q0 S48
M201 X1000 Y1000 Z200 E5000 ; sets maximum accelerations, mm/sec^2
M203 X200 Y200 Z12 E120 ; sets maximum feedrates, mm / sec
M204 P1250 R1250 T1250 ; sets acceleration (P, T) and retract acceleration (R), mm/sec^2
M205 X8.00 Y8.00 Z0.40 E4.50 ; sets the jerk limits, mm/sec
M205 S0 T0 ; sets the minimum extruding and travel feed rate, mm/sec
M107
;TYPE:Custom
M862.3 P "MK3SMMU2S" ; printer model check
M862.1 P0.4 ; nozzle diameter check
M115 U3.11.0 ; tell printer latest fw version
G90 ; use absolute coordinates
M83 ; extruder relative mode
M104 S215 ; set extruder temp
M140 S60 ; set bed temp
Tx
M190 S60 ; wait for bed temp
M109 S215 ; wait for extruder temp
G28 W ; home all without mesh bed level
G80 ; mesh bed leveling

;go outside print area
G1 Y-3 F1000
G1 Z0.4 F1000
; select extruder
Tc
; purge line
G1 X55 F2000
G1 Z0.3 F1000
G92 E0
G1 X240 E25 F2200
G1 Y-2 F1000
G1 X55 E25 F1400
G1 Z0.2 F1000
M73 P0 R47
G1 X5 E4 F1000

M221 S95
G92 E0

; Don't change E values below. Excessive value can damage the printer.
M907 E430 ; set extruder motor current
G21 ; set units to millimeters
G90 ; use absolute coordinates
M83 ; use relative distances for extrusion
M900 K0.05 ; Filament gcode LA 1.5
M900 K30 ; Filament gcode LA 1.0
M107
;LAYER_CHANGE
;Z:0.2
;HEIGHT:0.2
;BEFORE_LAYER_CHANGE
G92 E0.0
;0.2


G1 E-.8 F2100
G1 Z.4 F720
;AFTER_LAYER_CHANGE
;0.2
G1 X66.315 Y54.673 F10800
G1 Z.2 F720
G1 E.8 F2100
M204 S800
;TYPE:Skirt/Brim
;WIDTH:0.42
G1 F1200
G1 X66.531 Y54.411 E.01064
G1 X69.004 Y51.686 E.11538
G1 X71.604 Y49.082 E.11538
G1 X74.325 Y46.605 E.11538
G1 X77.161 Y44.26 E.11538
G1 X80.106 Y42.052 E.11538
G1 X83.247 Y39.926 E.11893
G1 X86.391 Y38.013 E.11538
G1 X89.622 Y36.252 E.11538
G1 X92.933 Y34.647 E.11538
G1 X96.317 Y33.2 E.11538
G1 X99.766 Y31.917 E.11538
G1 X103.272 Y30.799 E.11538
G1 X106.827 Y29.849 E.11538
G1 X110.423 Y29.07 E.11538
G1 X114.053 Y28.462 E.11538
G1 X117.707 Y28.028 E.11538
G1 X121.378 Y27.768 E.11538
G1 X125.413 Y27.692 E.12655
G1 X128.735 Y27.773 E.1042
G1 X132.293 Y28.028 E.11184
G1 X135.947 Y28.462 E.11538
G1 X139.577 Y29.07 E.11538
G1 X143.173 Y29.849 E.11538
G1 X146.728 Y30.799 E.11538
G1 X150.234 Y31.917 E.11538
G1 X153.683 Y33.2 E.11538
G1 X157.067 Y34.647 E.11538
G1 X160.378 Y36.252 E.11538
G1 X163.609 Y38.013 E.11538
G1 X166.753 Y39.926 E.11538
G1 X169.802 Y41.987 E.11538
G1 X172.75 Y44.19 E.11538
G1 X175.589 Y46.531 E.11538
G1 X178.314 Y49.004 E.11538
G1 X180.918 Y51.604 E.11538
G1 X183.395 Y54.325 E.11538
G1 X185.74 Y57.161 E.11538
G1 X187.948 Y60.106 E.11538
G1 X190.013 Y63.152 E.11538
G1 X191.93 Y66.293 E.11538
G1 X193.696 Y69.521 E.11538
G1 X195.306 Y72.83 E.11538
G1 X196.758 Y76.212 E.11538
G1 X198.046 Y79.659 E.11538
G1 X199.201 Y83.272 E.11893
G1 X200.151 Y86.827 E.11538
G1 X200.93 Y90.423 E.11538
G1 X201.538 Y94.053 E.11538
G1 X201.972 Y97.707 E.11538
G1 X202.232 Y101.378 E.11538
G1 X202.317 Y105.057 E.11538
G1 X202.227 Y108.735 E.11538
G1 X201.961 Y112.406 E.11538
G1 X201.522 Y116.059 E.11538
G1 X200.909 Y119.688 E.11538
G1 X200.124 Y123.283 E.11538
M73 P1 R47
M73 Q1 S48
G1 X199.169 Y126.837 E.11538
G1 X198.046 Y130.341 E.11538
G1 X196.758 Y133.788 E.11538
G1 X195.306 Y137.17 E.11538
G1 X193.696 Y140.479 E.11538
G1 X191.93 Y143.707 E.11538
G1 X189.813 Y147.144 E.12655
G1 X187.948 Y149.894 E.1042
G1 X185.81 Y152.75 E.11184
G1 X183.469 Y155.589 E.11538
G1 X180.996 Y158.314 E.11538
G1 X178.396 Y160.918 E.11538
G1 X175.675 Y163.395 E.11538
G1 X172.839 Y165.74 E.11538
G1 X169.894 Y167.948 E.11538
G1 X166.848 Y170.013 E.11538
M73 Q1 S47
G1 X163.707 Y171.93 E.11538
G1 X160.479 Y173.696 E.11538
G1 X157.17 Y175.306 E.11538
G1 X153.788 Y176.758 E.11538
G1 X150.341 Y178.046 E.11538
G1 X146.728 Y179.201 E.11893
G1 X143.173 Y180.151 E.11538
G1 X139.577 Y180.93 E.11538
G1 X135.947 Y181.538 E.11538
G1 X132.293 Y181.972 E.11538
G1 X128.622 Y182.232 E.11538
G1 X124.943 Y182.317 E.11538
G1 X121.265 Y182.227 E.11538
G1 X117.594 Y181.961 E.11538
G1 X113.941 Y181.522 E.11538
G1 X110.312 Y180.909 E.11538
G1 X106.717 Y180.124 E.11538
G1 X103.163 Y179.169 E.11538
G1 X99.659 Y178.046 E.11538
G1 X96.212 Y176.758 E.11538
G1 X92.83 Y175.306 E.11538
G1 X89.521 Y173.696 E.11538
G1 X86.293 Y171.93 E.11538
G1 X82.856 Y169.813 E.12655
G1 X80.106 Y167.948 E.1042
G1 X77.25 Y165.81 E.11184
G1 X74.411 Y163.469 E.11538
G1 X71.686 Y160.996 E.11538
G1 X69.082 Y158.396 E.11538
G1 X66.605 Y155.675 E.11538
G1 X64.26 Y152.839 E.11538
G1 X62.052 Y149.894 E.11538
G1 X59.987 Y146.848 E.11538
G1 X58.07 Y143.707 E.11538
G1 X56.304 Y140.479 E.11538
G1 X54.694 Y137.17 E.11538
G1 X53.242 Y133.788 E.11538
G1 X51.954 Y130.341 E.11538
G1 X50.799 Y126.728 E.11893
G1 X49.849 Y123.173 E.11538
G1 X49.07 Y119.577 E.11538
G1 X48.462 Y115.947 E.11538
G1 X48.028 Y112.293 E.11538
G1 X47.768 Y108.622 E.11538
G1 X47.683 Y104.943 E.11538
G1 X47.773 Y101.265 E.11538
G1 X48.039 Y97.594 E.11538
G1 X48.478 Y93.941 E.11538
G1 X49.091 Y90.312 E.11538
G1 X49.876 Y86.717 E.11538
G1 X50.831 Y83.163 E.11538
G1 X51.954 Y79.659 E.11538
G1 X53.242 Y76.212 E.11538
G1 X54.694 Y72.83 E.11538
G1 X56.304 Y69.521 E.11538
G1 X58.07 Y66.293 E.11538
G1 X60.187 Y62.856 E.12655
G1 X62.052 Y60.106 E.1042
G1 X64.19 Y57.25 E.11184
G1 X66.277 Y54.719 E.10286
M204 S1000
; printing object 2.stl id:0 copy 0
;WIPE_START
G1 F8640
G1 X66.531 Y54.411 E-.09218
G1 X68.475 Y52.269 E-.66782
;WIPE_END
G1 E-.04 F2100
G1 Z.6 F720
G1 X56.794 Y107.22 F10800
G1 Z.2 F720
G1 E.8 F2100
M204 S800
;TYPE:Perimeter
;WIDTH:0.419999
G1 F1200
G1 X56.799 Y108.418 E.03756
G1 X57.053 Y111.81 E.10666
G1 X57.477 Y115.187 E.10672
G1 X58.069 Y118.539 E.10672
G1 X58.828 Y121.864 E.10694
G1 X59.751 Y125.141 E.10676
G1 X60.836 Y128.369 E.10676
G1 X62.081 Y131.538 E.10676
G1 X63.482 Y134.641 E.10676
G1 X65.036 Y137.671 E.10676
G1 X66.739 Y140.619 E.10676
G1 X68.587 Y143.479 E.10676
G1 X70.575 Y146.243 E.10676
G1 X72.698 Y148.905 E.10676
G1 X74.952 Y151.457 E.10676
G1 X77.33 Y153.894 E.10676
G1 X79.826 Y156.21 E.10676
G1 X82.435 Y158.398 E.10676
G1 X85.149 Y160.453 E.10676
G1 X87.963 Y162.37 E.10676
G1 X90.868 Y164.145 E.10674
G1 X93.858 Y165.772 E.10672
G1 X96.924 Y167.249 E.10672
G1 X100.061 Y168.57 E.10672
G1 X103.259 Y169.734 E.10672
G1 X106.519 Y170.739 E.10694
G1 X109.818 Y171.578 E.10676
G1 X113.128 Y172.247 E.10587
G1 X116.495 Y172.755 E.10676
G1 X119.883 Y173.095 E.10676
G1 X123.283 Y173.265 E.10676
G1 X126.688 Y173.266 E.10676
G1 X130.117 Y173.095 E.10764
G1 X133.505 Y172.755 E.10676
G1 X136.872 Y172.247 E.10676
G1 X140.209 Y171.572 E.10676
G1 X143.508 Y170.731 E.10676
G1 X146.762 Y169.727 E.10676
G1 X149.935 Y168.572 E.10587
G1 X153.098 Y167.238 E.10764
G1 X156.166 Y165.76 E.10676
G1 X159.155 Y164.132 E.10674
G1 X162.059 Y162.356 E.10672
G1 X164.871 Y160.438 E.10672
G1 X167.584 Y158.383 E.10672
G1 X170.191 Y156.195 E.10672
G1 X172.691 Y153.875 E.10694
G1 X175.067 Y151.437 E.10676
G1 X177.32 Y148.883 E.10676
G1 X179.442 Y146.221 E.10676
G1 X181.429 Y143.456 E.10676
G1 X183.276 Y140.595 E.10676
G1 X184.978 Y137.646 E.10676
G1 X186.531 Y134.616 E.10676
G1 X187.93 Y131.512 E.10676
G1 X189.174 Y128.342 E.10676
G1 X190.257 Y125.114 E.10676
G1 X191.179 Y121.837 E.10676
G1 X191.936 Y118.517 E.10676
G1 X192.526 Y115.164 E.10676
G1 X192.949 Y111.785 E.10676
G1 X193.203 Y108.387 E.10686
G1 X193.23 Y107.016 E.04298
G1 X193.752 Y107.596 E.02448
G1 X194.155 Y107.875 E.01537
G1 X194.602 Y108.138 E.01624
G1 X195.426 Y108.387 E.027
G1 X196.286 Y108.423 E.027
G1 X197.129 Y108.244 E.027
G1 X197.9 Y107.862 E.027
G1 X198.552 Y107.299 E.027
G1 X198.975 Y106.717 E.02258
G1 X199.12 Y106.4 E.01091
G1 X199.069 Y108.528 E.06675
G1 X198.817 Y112.049 E.11066
G1 X198.398 Y115.553 E.11066
G1 X197.813 Y119.034 E.11066
G1 X197.063 Y122.482 E.11066
G1 X196.149 Y125.891 E.11066
G1 X195.075 Y129.253 E.11066
G1 X193.841 Y132.56 E.11066
G1 X192.452 Y135.804 E.11066
G1 X190.91 Y138.979 E.11066
G1 X189.219 Y142.077 E.11066
G1 X187.382 Y145.09 E.11066
G1 X185.403 Y148.013 E.11066
G1 X183.288 Y150.838 E.11066
G1 X181.041 Y153.56 E.11066
G1 X178.667 Y156.172 E.11066
G1 X176.172 Y158.667 E.11066
G1 X173.56 Y161.041 E.11066
G1 X170.838 Y163.288 E.11066
M73 P2 R47
M73 Q2 S47
G1 X168.013 Y165.403 E.11066
G1 X165.09 Y167.382 E.11066
G1 X162.077 Y169.219 E.11066
G1 X158.979 Y170.91 E.11066
G1 X155.804 Y172.452 E.11066
G1 X152.56 Y173.841 E.11066
G1 X149.253 Y175.075 E.11066
G1 X145.891 Y176.149 E.11066
G1 X142.482 Y177.063 E.11066
G1 X139.034 Y177.813 E.11066
G1 X135.553 Y178.398 E.11066
G1 X132.049 Y178.817 E.11066
G1 X128.528 Y179.069 E.11066
G1 X125 Y179.153 E.11066
G1 X121.472 Y179.069 E.11066
G1 X117.951 Y178.817 E.11066
G1 X114.447 Y178.398 E.11066
G1 X110.966 Y177.813 E.11066
G1 X107.518 Y177.063 E.11066
G1 X104.109 Y176.149 E.11066
G1 X100.747 Y175.075 E.11066
G1 X97.44 Y173.841 E.11066
G1 X94.196 Y172.452 E.11066
G1 X91.021 Y170.91 E.11066
G1 X87.923 Y169.219 E.11066
G1 X84.91 Y167.382 E.11066
G1 X81.987 Y165.403 E.11066
G1 X79.162 Y163.288 E.11066
G1 X76.44 Y161.041 E.11066
G1 X73.828 Y158.667 E.11066
G1 X71.333 Y156.172 E.11066
G1 X68.959 Y153.56 E.11066
G1 X66.712 Y150.838 E.11066
G1 X64.597 Y148.013 E.11066
G1 X62.618 Y145.09 E.11066
G1 X60.781 Y142.077 E.11066
G1 X59.09 Y138.979 E.11066
G1 X57.548 Y135.804 E.11066
G1 X56.159 Y132.56 E.11066
G1 X54.925 Y129.253 E.11066
G1 X53.851 Y125.891 E.11066
G1 X52.937 Y122.482 E.11066
G1 X52.187 Y119.034 E.11066
G1 X51.602 Y115.553 E.11066
G1 X51.183 Y112.049 E.11066
G1 X50.931 Y108.528 E.11066
G1 X50.866 Y105.803 E.08549
G1 X51.025 Y106.352 E.01793
G1 X51.456 Y107.098 E.027
G1 X51.949 Y107.623 E.02258
G1 X52.19 Y107.797 E.00933
G1 X52.794 Y108.159 E.0221
G1 X53.618 Y108.408 E.027
G1 X54.479 Y108.445 E.027
G1 X55.321 Y108.266 E.02701
G1 X56.099 Y107.878 E.02724
G1 X56.646 Y107.411 E.02256
G1 X56.758 Y107.267 E.0057
M204 S1000
;WIPE_START
G1 F8640
G1 X56.799 Y108.418 E-.26584
G1 X56.959 Y110.552 E-.49416
;WIPE_END
G1 E-.04 F2100
G1 Z.6 F720
G1 X125.197 Y37.329 F10800
G1 Z.2 F720
G1 E.8 F2100
M204 S800
;TYPE:External perimeter
;WIDTH:0.41566
G1 F1200
G1 X124.488 Y37.31 E.02199
M204 S1000
;WIPE_START
G1 F8640
G1 X125.197 Y37.329 E-.16382
;WIPE_END
G1 E-.63618 F2100
G1 Z.6 F720
G1 X193.23 Y102.984 F10800
G1 Z.2 F720
G1 E.8 F2100
M204 S800
;TYPE:Perimeter
;WIDTH:0.419999
G1 F1200
G1 X193.201 Y101.582 E.04396
G1 X192.947 Y98.19 E.10666
G1 X192.523 Y94.813 E.10672
G1 X191.931 Y91.461 E.10672
G1 X191.172 Y88.136 E.10694
G1 X190.249 Y84.859 E.10676
G1 X189.164 Y81.631 E.10676
G1 X187.93 Y78.488 E.10587
G1 X186.531 Y75.384 E.10676
G1 X184.978 Y72.354 E.10676
G1 X183.276 Y69.405 E.10676
G1 X181.429 Y66.544 E.10676
G1 X179.425 Y63.757 E.10764
G1 X177.302 Y61.095 E.10676
G1 X175.048 Y58.543 E.10676
G1 X172.67 Y56.106 E.10676
G1 X170.174 Y53.79 E.10676
G1 X167.565 Y51.602 E.10676
G1 X164.851 Y49.547 E.10676
G1 X162.037 Y47.63 E.10676
G1 X159.132 Y45.855 E.10674
G1 X156.142 Y44.228 E.10672
G1 X153.076 Y42.751 E.10672
G1 X149.939 Y41.43 E.10672
G1 X146.741 Y40.266 E.10672
G1 X143.481 Y39.261 E.10694
G1 X140.182 Y38.422 E.10676
G1 X136.844 Y37.748 E.10676
G1 X133.477 Y37.241 E.10676
G1 X130.088 Y36.903 E.10679
G1 X128.116 Y36.809 E.06192
G1 X127.462 Y36.83 E.02051
G1 X128.041 Y36.094 E.02938
M73 P2 R46
G1 X128.344 Y35.285 E.02707
G1 X128.434 Y34.429 E.027
G1 X128.309 Y33.577 E.027
G1 X127.975 Y32.783 E.027
G1 X127.455 Y32.097 E.027
G1 X126.78 Y31.562 E.027
G1 X125.992 Y31.22 E.02694
;WIDTH:0.403242
G1 X125.636 Y31.167 E.0108
;WIDTH:0.373523
G1 X125.279 Y31.114 E.00991
;WIDTH:0.34646
G1 X125.01 Y31.113 E.00681
;WIDTH:0.374587
G1 X124.294 Y31.161 E.01978
;WIDTH:0.419999
G1 X123.474 Y31.423 E.02699
G1 X122.756 Y31.899 E.027
G1 X122.18 Y32.539 E.027
G1 X121.781 Y33.302 E.027
G1 X121.584 Y34.14 E.027
G1 X121.602 Y35.001 E.02701
G1 X121.838 Y35.839 E.02729
G1 X122.196 Y36.463 E.02256
G1 X122.586 Y36.828 E.01675
G1 X122.342 Y36.803 E.00771
G1 X121.839 Y36.81 E.01577
G1 X119.883 Y36.905 E.0614
G1 X116.523 Y37.241 E.10587
G1 X113.128 Y37.753 E.10764
G1 X109.791 Y38.428 E.10676
G1 X106.492 Y39.269 E.10676
G1 X103.238 Y40.273 E.10676
G1 X100.039 Y41.439 E.10676
G1 X96.927 Y42.75 E.10587
G1 X93.859 Y44.227 E.10676
G1 X90.869 Y45.855 E.10676
G1 X87.941 Y47.644 E.10758
G1 X85.344 Y49.414 E.09855
G1 X82.416 Y51.617 E.11488
G1 X79.809 Y53.805 E.10672
G1 X77.309 Y56.125 E.10694
G1 X74.933 Y58.563 E.10676
G1 X72.68 Y61.117 E.10676
G1 X70.558 Y63.779 E.10676
G1 X68.571 Y66.544 E.10676
G1 X66.724 Y69.405 E.10676
G1 X65.022 Y72.354 E.10676
G1 X63.469 Y75.384 E.10676
G1 X62.081 Y78.462 E.10587
G1 X60.836 Y81.631 E.10676
G1 X59.751 Y84.859 E.10676
G1 X58.828 Y88.136 E.10676
G1 X58.07 Y91.455 E.10676
G1 X57.478 Y94.808 E.10676
G1 X57.054 Y98.187 E.10676
G1 X56.792 Y101.853 E.11526
G1 X56.783 Y102.782 E.0291
G1 X56.646 Y102.632 E.00634
G1 X55.953 Y102.075 E.02789
G1 X55.186 Y101.733 E.02632
G1 X54.479 Y101.598 E.02258
G1 X54.258 Y101.595 E.00691
G1 X53.479 Y101.661 E.02452
G1 X52.666 Y101.944 E.027
G1 X51.949 Y102.421 E.027
G1 X51.372 Y103.06 E.027
G1 X51.025 Y103.691 E.02258
G1 X50.865 Y104.245 E.01807
G1 X50.931 Y101.472 E.08698
G1 X51.183 Y97.951 E.11066
G1 X51.602 Y94.447 E.11066
G1 X52.187 Y90.966 E.11066
G1 X52.937 Y87.518 E.11066
G1 X53.851 Y84.109 E.11066
G1 X54.925 Y80.747 E.11066
G1 X56.159 Y77.44 E.11066
G1 X57.548 Y74.196 E.11066
G1 X59.09 Y71.021 E.11066
G1 X60.781 Y67.923 E.11066
G1 X62.618 Y64.91 E.11066
G1 X64.597 Y61.987 E.11066
G1 X66.712 Y59.162 E.11066
G1 X68.959 Y56.44 E.11066
G1 X71.333 Y53.828 E.11066
G1 X73.828 Y51.333 E.11066
G1 X76.44 Y48.959 E.11066
G1 X79.162 Y46.712 E.11066
G1 X81.987 Y44.597 E.11066
G1 X84.91 Y42.618 E.11066
G1 X87.923 Y40.781 E.11066
G1 X91.021 Y39.09 E.11066
G1 X94.196 Y37.548 E.11066
G1 X97.44 Y36.159 E.11066
G1 X100.747 Y34.925 E.11066
G1 X104.109 Y33.851 E.11066
G1 X107.518 Y32.937 E.11066
G1 X110.966 Y32.187 E.11066
G1 X114.447 Y31.602 E.11066
G1 X117.951 Y31.183 E.11066
G1 X121.472 Y30.931 E.11066
G1 X123.52 Y30.882 E.06424
G1 X123.967 Y30.856 E.01405
;WIDTH:0.388913
G1 X124.414 Y30.83 E.01289
;WIDTH:0.357827
G1 X125.311 Y30.816 E.02348
;WIDTH:0.377509
G1 X125.765 Y30.844 E.01265
;WIDTH:0.411214
G1 X126.218 Y30.871 E.01392
;WIDTH:0.419999
G1 X128.528 Y30.931 E.07245
G1 X132.049 Y31.183 E.11066
G1 X135.553 Y31.602 E.11066
G1 X139.034 Y32.187 E.11066
G1 X142.482 Y32.937 E.11066
M73 P3 R46
M73 Q3 S47
G1 X145.891 Y33.851 E.11066
G1 X149.253 Y34.925 E.11066
G1 X152.56 Y36.159 E.11066
G1 X155.804 Y37.548 E.11066
G1 X158.979 Y39.09 E.11066
G1 X162.077 Y40.781 E.11066
G1 X165.09 Y42.618 E.11066
G1 X168.013 Y44.597 E.11066
G1 X170.838 Y46.712 E.11066
G1 X173.56 Y48.959 E.11066
G1 X176.172 Y51.333 E.11066
G1 X178.667 Y53.828 E.11066
G1 X181.041 Y56.44 E.11066
G1 X183.288 Y59.162 E.11066
G1 X185.403 Y61.987 E.11066
G1 X187.382 Y64.91 E.11066
G1 X189.219 Y67.923 E.11066
G1 X190.91 Y71.021 E.11066
G1 X192.452 Y74.196 E.11066
G1 X193.841 Y77.44 E.11066
G1 X195.075 Y80.747 E.11066
G1 X196.149 Y84.109 E.11066
G1 X197.063 Y87.518 E.11066
G1 X197.813 Y90.966 E.11066
G1 X198.398 Y94.447 E.11066
G1 X198.817 Y97.951 E.11066
G1 X199.069 Y101.472 E.11066
M73 Q3 S46
G1 X199.12 Y103.6 E.06675
G1 X198.975 Y103.283 E.01091
G1 X198.455 Y102.597 E.027
G1 X197.78 Y102.062 E.027
G1 X196.994 Y101.712 E.027
G1 X196.109 Y101.57 E.02811
G1 X195.287 Y101.64 E.02586
G1 X194.602 Y101.862 E.02258
G1 X194.212 Y102.089 E.01415
G1 X193.752 Y102.404 E.01746
G1 X193.27 Y102.939 E.0226
M204 S1000
;WIPE_START
G1 F8640
G1 X193.201 Y101.582 E-.31375
G1 X193.057 Y99.655 E-.44625
;WIPE_END
G1 E-.04 F2100
G1 Z.6 F720
G1 X193.212 Y106.109 F10800
G1 Z.2 F720
G1 E.8 F2100
M204 S800
;TYPE:External perimeter
;WIDTH:0.437741
G1 F1200
G1 X193.129 Y105.444 E.02202
;WIDTH:0.424273
G1 X193.121 Y104.661 E.02481
;WIDTH:0.431731
